X:120
T:Britts 50-årspolska
C:Clara Andermo
C:Erik Ronström
R:Polska
M:3/4
L:1/16
K:A
A,B,CD E4 A3B|cde2 B6 c2|d2fd e2a2 a4|agfe fedc d2c2|
B3A G2A2 F4|GAB2 E8|A,B,CD E4 A3B|cde2 B6 c2|d2fd e2a2 a4|
agfe fedc d2c2|[1 PB3A G2A2 F4|G2A2 A8:|[2 PB3A G2A2 F4-|F2GF E2D2 E4-|
E2c2 d2B2 c2A2|B2AG G2A2 A4|:a6 g2 f2e2|c2ec d2fd efed|c2A2 F2d2 BcBA|
FGAB E8|a6 g2 f2e2|fga2 b2Mg2 e2c2|d2a2 c2d2 B3A|G2A2 A8:|
(:musicend:)

Allmänt spelad. Jag blev lite osäker på slutfall och sånt när jag skrev ner den nu ur huvudet, ändra gärna den som vill!

(:music:)
